static/images/3.svg

<svg width="91" height="91" viewBox="0 0 91 91" fill="none" xmlns="http://www.w3.org/2000/svg">
<circle cx="45.2933" cy="45.6273" r="44.8874" fill="#CFD300"/>
<g filter="url(#filter0_d)">
<path d="M51.2065 43.7107C53.0351 44.2376 54.4608 45.1984 55.4835 46.593C56.5373 47.9877 57.0642 49.6768 57.0642 51.6604C57.0642 53.551 56.5528 55.1936 55.53 56.5883C54.5073 57.983 53.0506 59.0677 51.16 59.8425C49.3004 60.5864 47.1154 60.9583 44.605 60.9583C42.5905 60.9583 40.6534 60.6948 38.7938 60.168C36.9343 59.6101 35.3226 58.8198 33.9589 57.797C33.4321 57.3941 33.0601 56.9757 32.8432 56.5418C32.6262 56.0769 32.5178 55.5345 32.5178 54.9147C32.5178 53.9539 32.7812 53.1481 33.3081 52.4972C33.835 51.8154 34.4858 51.4744 35.2606 51.4744C35.6945 51.4744 36.0819 51.5519 36.4229 51.7069C36.7638 51.8309 37.2287 52.0478 37.8176 52.3577C37.9415 52.4197 38.081 52.4972 38.236 52.5902C38.4219 52.6522 38.6234 52.7297 38.8403 52.8226C39.8321 53.3185 40.7154 53.7059 41.4902 53.9849C42.296 54.2328 43.1948 54.3568 44.1866 54.3568C45.9222 54.3568 47.1619 54.0778 47.9058 53.52C48.6806 52.9621 49.068 52.0323 49.068 50.7306C49.068 49.5219 48.6806 48.6541 47.9058 48.1272C47.1309 47.6003 45.8602 47.3369 44.0936 47.3369H41.2113C40.2815 47.3369 39.5532 47.0115 39.0263 46.3606C38.4994 45.7098 38.236 44.9349 38.236 44.0361C38.236 43.1373 38.4994 42.3625 39.0263 41.7117C39.5532 41.0608 40.2815 40.7354 41.2113 40.7354H43.2568C44.9614 40.7354 46.2011 40.4874 46.976 39.9916C47.7508 39.4957 48.1382 38.7053 48.1382 37.6206C48.1382 36.4739 47.7973 35.5906 47.1154 34.9707C46.4336 34.3198 45.4883 33.9944 44.2796 33.9944C43.4118 33.9944 42.5905 34.1339 41.8156 34.4128C41.0718 34.6918 40.235 35.0637 39.3052 35.5286L38.3289 35.9935C37.7401 36.3034 37.2752 36.5358 36.9343 36.6908C36.5933 36.8148 36.2059 36.8768 35.772 36.8768C34.9972 36.8768 34.3463 36.5513 33.8195 35.9005C33.2926 35.2186 33.0291 34.3973 33.0291 33.4365C33.0291 32.7857 33.1376 32.2433 33.3546 31.8094C33.5715 31.3755 33.9434 30.9571 34.4703 30.5542C35.803 29.5624 37.3682 28.7876 39.1657 28.2297C40.9943 27.6719 42.8384 27.3929 44.698 27.3929C46.9915 27.3929 49.006 27.7648 50.7416 28.5087C52.5082 29.2525 53.8564 30.3063 54.7862 31.6699C55.747 33.0336 56.2274 34.6143 56.2274 36.4119C56.2274 38.1165 55.778 39.6196 54.8792 40.9213C54.0114 42.1921 52.7871 43.1218 51.2065 43.7107Z" fill="white"/>
<path d="M51.2065 43.7107L50.8574 42.7736L48.0161 43.8321L50.9296 44.6716L51.2065 43.7107ZM55.4835 46.593L54.6771 47.1844L54.6814 47.1902L54.6857 47.1959L55.4835 46.593ZM55.53 56.5883L56.3364 57.1796L56.3364 57.1796L55.53 56.5883ZM51.16 59.8425L51.5314 60.771L51.5392 60.7678L51.16 59.8425ZM38.7938 60.168L38.5065 61.1258L38.5138 61.128L38.5212 61.1301L38.7938 60.168ZM33.9589 57.797L33.3515 58.5914L33.3589 58.597L33.9589 57.797ZM32.8432 56.5418L31.937 56.9647L31.9427 56.9769L31.9488 56.989L32.8432 56.5418ZM33.3081 52.4972L34.0853 53.1264L34.0924 53.1176L34.0994 53.1087L33.3081 52.4972ZM36.4229 51.7069L36.0091 52.6173L36.0445 52.6334L36.0811 52.6467L36.4229 51.7069ZM37.8176 52.3577L37.3518 53.2427L37.361 53.2475L37.3703 53.2522L37.8176 52.3577ZM38.236 52.5902L37.7215 53.4477L37.8156 53.5042L37.9197 53.5389L38.236 52.5902ZM38.8403 52.8226L39.2875 51.9282L39.2613 51.9151L39.2342 51.9035L38.8403 52.8226ZM41.4902 53.9849L41.1515 54.9258L41.1736 54.9337L41.1961 54.9406L41.4902 53.9849ZM47.9058 53.52L47.3215 52.7084L47.3135 52.7141L47.3058 52.72L47.9058 53.52ZM47.9058 48.1272L47.3434 48.9541L47.3434 48.9541L47.9058 48.1272ZM47.1154 34.9707L46.425 35.6941L46.4338 35.7025L46.4428 35.7106L47.1154 34.9707ZM41.8156 34.4128L41.4769 33.4719L41.4645 33.4765L41.8156 34.4128ZM39.3052 35.5286L39.7351 36.4314L39.7438 36.4273L39.7524 36.423L39.3052 35.5286ZM38.3289 35.9935L37.899 35.0906L37.8809 35.0992L37.8632 35.1085L38.3289 35.9935ZM36.9343 36.6908L37.276 37.6306L37.3126 37.6173L37.3481 37.6012L36.9343 36.6908ZM33.8195 35.9005L33.0282 36.5119L33.0351 36.5209L33.0422 36.5297L33.8195 35.9005ZM34.4703 30.5542L33.8733 29.7519L33.8629 29.7598L34.4703 30.5542ZM39.1657 28.2297L38.8739 27.2732L38.8693 27.2747L39.1657 28.2297ZM50.7416 28.5087L50.3477 29.4278L50.3536 29.4303L50.7416 28.5087ZM54.7862 31.6699L53.96 32.2333L53.9643 32.2396L53.9687 32.2459L54.7862 31.6699ZM54.8792 40.9213L54.0563 40.3531L54.0534 40.3574L54.8792 40.9213ZM50.9296 44.6716C52.5683 45.1438 53.7984 45.9861 54.6771 47.1844L56.2899 46.0017C55.1231 44.4106 53.5019 43.3314 51.4834 42.7498L50.9296 44.6716ZM54.6857 47.1959C55.5909 48.394 56.0642 49.8637 56.0642 51.6604H58.0642C58.0642 49.49 57.4837 47.5815 56.2814 45.9902L54.6857 47.1959ZM56.0642 51.6604C56.0642 53.3592 55.6088 54.7899 54.7236 55.9969L56.3364 57.1796C57.4968 55.5973 58.0642 53.7428 58.0642 51.6604H56.0642ZM54.7236 55.9969C53.8282 57.218 52.5322 58.1994 50.7808 58.9172L51.5392 60.7678C53.569 59.936 55.1864 58.7479 56.3364 57.1796L54.7236 55.9969ZM50.7886 58.9141C49.0729 59.6003 47.0193 59.9583 44.605 59.9583V61.9583C47.2116 61.9583 49.5279 61.5724 51.5314 60.771L50.7886 58.9141ZM44.605 59.9583C42.6787 59.9583 40.8336 59.7065 39.0664 59.2058L38.5212 61.1301C40.4732 61.6831 42.5022 61.9583 44.605 61.9583V59.9583ZM39.0812 59.2101C37.3188 58.6814 35.8164 57.9401 34.5589 56.997L33.3589 58.597C34.8289 59.6994 36.5497 60.5387 38.5065 61.1258L39.0812 59.2101ZM34.5664 57.0026C34.1183 56.66 33.8663 56.352 33.7376 56.0946L31.9488 56.989C32.254 57.5994 32.7458 58.1282 33.3515 58.5914L34.5664 57.0026ZM33.7494 56.1189C33.6057 55.8111 33.5178 55.4183 33.5178 54.9147H31.5178C31.5178 55.6507 31.6467 56.3427 31.937 56.9647L33.7494 56.1189ZM33.5178 54.9147C33.5178 54.1474 33.7234 53.5734 34.0853 53.1264L32.5308 51.868C31.839 52.7227 31.5178 53.7604 31.5178 54.9147H33.5178ZM34.0994 53.1087C34.4612 52.6404 34.8332 52.4744 35.2606 52.4744V50.4744C34.1384 50.4744 33.2087 50.9903 32.5168 51.8858L34.0994 53.1087ZM35.2606 52.4744C35.5743 52.4744 35.8171 52.53 36.0091 52.6173L36.8367 50.7965C36.3468 50.5738 35.8148 50.4744 35.2606 50.4744V52.4744ZM36.0811 52.6467C36.3581 52.7474 36.7759 52.9395 37.3518 53.2427L38.2833 51.4728C37.6815 51.1561 37.1695 50.9143 36.7646 50.7671L36.0811 52.6467ZM37.3703 53.2522C37.4658 53.2999 37.5823 53.3642 37.7215 53.4477L38.7505 51.7327C38.5797 51.6303 38.4173 51.5396 38.2648 51.4633L37.3703 53.2522ZM37.9197 53.5389C38.0747 53.5905 38.25 53.6576 38.4464 53.7418L39.2342 51.9035C38.9968 51.8017 38.7691 51.7138 38.5522 51.6415L37.9197 53.5389ZM38.3931 53.7171C39.4089 54.225 40.3295 54.6298 41.1515 54.9258L41.8289 53.044C41.1013 52.782 40.2553 52.4121 39.2875 51.9282L38.3931 53.7171ZM41.1961 54.9406C42.1123 55.2225 43.1122 55.3568 44.1866 55.3568V53.3568C43.2774 53.3568 42.4798 53.2431 41.7843 53.0291L41.1961 54.9406ZM44.1866 55.3568C45.9764 55.3568 47.4931 55.0795 48.5058 54.32L47.3058 52.72C46.8308 53.0762 45.868 53.3568 44.1866 53.3568V55.3568ZM48.4901 54.3315C49.614 53.5223 50.068 52.2273 50.068 50.7306H48.068C48.068 51.8373 47.7471 52.4019 47.3215 52.7084L48.4901 54.3315ZM50.068 50.7306C50.068 49.2981 49.5948 48.0665 48.4681 47.3003L47.3434 48.9541C47.7663 49.2417 48.068 49.7457 48.068 50.7306H50.068ZM48.4681 47.3003C47.4355 46.5982 45.9095 46.3369 44.0936 46.3369V48.3369C45.8109 48.3369 46.8263 48.6025 47.3434 48.9541L48.4681 47.3003ZM44.0936 46.3369H41.2113V48.3369H44.0936V46.3369ZM41.2113 46.3369C40.5454 46.3369 40.118 46.1198 39.8035 45.7314L38.249 46.9898C38.9884 47.9031 40.0175 48.3369 41.2113 48.3369V46.3369ZM39.8035 45.7314C39.4317 45.2721 39.236 44.7239 39.236 44.0361H37.236C37.236 45.146 37.5671 46.1474 38.249 46.9898L39.8035 45.7314ZM39.236 44.0361C39.236 43.3484 39.4317 42.8002 39.8035 42.3409L38.249 41.0825C37.5671 41.9249 37.236 42.9263 37.236 44.0361H39.236ZM39.8035 42.3409C40.118 41.9524 40.5454 41.7354 41.2113 41.7354V39.7354C40.0175 39.7354 38.9884 40.1692 38.249 41.0825L39.8035 42.3409ZM41.2113 41.7354H43.2568V39.7354H41.2113V41.7354ZM43.2568 41.7354C45.0134 41.7354 46.4925 41.4882 47.515 40.8338L46.4369 39.1493C45.9098 39.4866 44.9095 39.7354 43.2568 39.7354V41.7354ZM47.515 40.8338C48.6322 40.1188 49.1382 38.9752 49.1382 37.6206H47.1382C47.1382 38.4355 46.8694 38.8725 46.4369 39.1493L47.515 40.8338ZM49.1382 37.6206C49.1382 36.2661 48.7275 35.0848 47.7881 34.2308L46.4428 35.7106C46.867 36.0963 47.1382 36.6816 47.1382 37.6206H49.1382ZM47.8059 34.2473C46.8898 33.3729 45.67 32.9944 44.2796 32.9944V34.9944C45.3066 34.9944 45.9774 35.2668 46.425 35.6941L47.8059 34.2473ZM44.2796 32.9944C43.3026 32.9944 42.3661 33.1518 41.4769 33.4719L42.1544 35.3537C42.8148 35.116 43.521 34.9944 44.2796 34.9944V32.9944ZM41.4645 33.4765C40.6798 33.7708 39.8101 34.1581 38.858 34.6341L39.7524 36.423C40.6599 35.9693 41.4639 35.6127 42.1668 35.3492L41.4645 33.4765ZM38.8753 34.6257L37.899 35.0906L38.7589 36.8963L39.7351 36.4314L38.8753 34.6257ZM37.8632 35.1085C37.2805 35.4152 36.8354 35.6373 36.5204 35.7804L37.3481 37.6012C37.715 37.4344 38.1996 37.1916 38.7947 36.8784L37.8632 35.1085ZM36.5925 35.751C36.3802 35.8282 36.1116 35.8768 35.772 35.8768V37.8768C36.3002 37.8768 36.8064 37.8014 37.276 37.6306L36.5925 35.751ZM35.772 35.8768C35.3258 35.8768 34.9513 35.7093 34.5967 35.2713L33.0422 36.5297C33.7414 37.3934 34.6686 37.8768 35.772 37.8768V35.8768ZM34.6108 35.289C34.2347 34.8024 34.0291 34.2029 34.0291 33.4365H32.0291C32.0291 34.5918 32.3504 35.6349 33.0282 36.5119L34.6108 35.289ZM34.0291 33.4365C34.0291 32.8903 34.121 32.5126 34.249 32.2566L32.4601 31.3622C32.1542 31.9741 32.0291 32.681 32.0291 33.4365H34.0291ZM34.249 32.2566C34.3777 31.9992 34.6297 31.6912 35.0778 31.3486L33.8629 29.7598C33.2572 30.223 32.7653 30.7518 32.4601 31.3622L34.249 32.2566ZM35.0673 31.3564C36.298 30.4406 37.7585 29.7135 39.4621 29.1848L38.8693 27.2747C36.9778 27.8617 35.308 28.6843 33.8733 29.752L35.0673 31.3564ZM39.4576 29.1862C41.1942 28.6564 42.9401 28.3929 44.698 28.3929V26.3929C42.7368 26.3929 40.7944 26.6873 38.8739 27.2733L39.4576 29.1862ZM44.698 28.3929C46.8844 28.3929 48.7602 28.7475 50.3477 29.4278L51.1355 27.5895C49.2518 26.7822 47.0985 26.3929 44.698 26.3929V28.3929ZM50.3536 29.4303C51.9719 30.1117 53.1553 31.0531 53.96 32.2333L55.6124 31.1066C54.5575 29.5594 53.0445 28.3933 51.1297 27.587L50.3536 29.4303ZM53.9687 32.2459C54.8014 33.4277 55.2274 34.8036 55.2274 36.4119H57.2274C57.2274 34.4249 56.6926 32.6395 55.6037 31.094L53.9687 32.2459ZM55.2274 36.4119C55.2274 37.9301 54.8307 39.2316 54.0563 40.3532L55.7021 41.4895C56.7253 40.0077 57.2274 38.3029 57.2274 36.4119H55.2274ZM54.0534 40.3574C53.3133 41.441 52.2639 42.2496 50.8574 42.7736L51.5556 44.6478C53.3103 43.9941 54.7094 42.9431 55.705 41.4853L54.0534 40.3574Z" fill="black" fill-opacity="0.14"/>
</g>
<defs>
<filter id="filter0_d" x="21.5178" y="21.3929" width="46.5464" height="55.5654" filterUnits="userSpaceOnUse" color-interpolation-filters="sRGB">
<feFlood flood-opacity="0" result="BackgroundImageFix"/>
<feColorMatrix in="SourceAlpha" type="matrix" values="0 0 0 0 0 0 0 0 0 0 0 0 0 0 0 0 0 0 127 0"/>
<feOffset dy="5"/>
<feGaussianBlur stdDeviation="5"/>
<feColorMatrix type="matrix" values="0 0 0 0 0 0 0 0 0 0 0 0 0 0 0 0 0 0 0.39 0"/>
<feBlend mode="normal" in2="BackgroundImageFix" result="effect1_dropShadow"/>
<feBlend mode="normal" in="SourceGraphic" in2="effect1_dropShadow" result="shape"/>
</filter>
</defs>
</svg>

<svg width="91" height="91" fill="none" xmlns="http://www.w3.org/2000/svg"><circle cx="45.293" cy="45.627" r="44.887" fill="#CFD300"/><g filter="url(#filter0_d)"><path d="M51.206 43.71c1.83.528 3.255 1.488 4.277 2.883 1.054 1.395 1.581 3.084 1.581 5.067 0 1.891-.511 3.534-1.534 4.928-1.023 1.395-2.48 2.48-4.37 3.255-1.86.743-4.045 1.115-6.555 1.115-2.014 0-3.952-.263-5.811-.79-1.86-.558-3.471-1.348-4.835-2.371-.527-.403-.899-.821-1.116-1.255-.217-.465-.325-1.008-.325-1.627 0-.961.263-1.767.79-2.418.527-.682 1.178-1.023 1.953-1.023.433 0 .82.078 1.162.233.34.124.806.34 1.395.65.123.063.263.14.418.233.186.062.387.14.604.233a25.1 25.1 0 0 0 2.65 1.162c.806.248 1.705.372 2.697.372 1.735 0 2.975-.28 3.719-.837.775-.558 1.162-1.488 1.162-2.79 0-1.208-.387-2.076-1.162-2.603-.775-.527-2.046-.79-3.812-.79H41.21c-.93 0-1.658-.326-2.185-.976-.527-.651-.79-1.426-.79-2.325 0-.899.263-1.674.79-2.324.527-.651 1.255-.977 2.185-.977h2.046c1.704 0 2.944-.248 3.719-.743.775-.496 1.162-1.287 1.162-2.371 0-1.147-.34-2.03-1.023-2.65-.681-.651-1.627-.977-2.835-.977-.868 0-1.69.14-2.464.419a26.18 26.18 0 0 0-2.51 1.116l-.977.464a28.77 28.77 0 0 1-1.395.698 3.387 3.387 0 0 1-1.162.186c-.775 0-1.426-.326-1.953-.977-.526-.681-.79-1.503-.79-2.463 0-.651.109-1.194.326-1.628.217-.434.588-.852 1.115-1.255 1.333-.992 2.898-1.766 4.696-2.324a18.867 18.867 0 0 1 5.532-.837c2.294 0 4.308.372 6.044 1.116 1.766.744 3.114 1.797 4.044 3.16.961 1.365 1.441 2.945 1.441 4.743 0 1.705-.449 3.208-1.348 4.51-.868 1.27-2.092 2.2-3.672 2.789z" fill="#fff"/><path d="M51.206 43.71l-.349-.936-2.84 1.058 2.913.84.276-.961zm4.277 2.883l-.806.591.004.006.005.006.797-.603zm.047 9.995l.806.592-.806-.592zm-4.37 3.255l.371.928.008-.003-.379-.925zm-12.366.325l-.287.958.007.002.007.002.273-.962zm-4.835-2.371l-.608.794.008.006.6-.8zm-1.116-1.255l-.906.423.006.012.006.012.894-.447zm.465-4.045l.777.63.007-.01.007-.008-.79-.612zm3.115-.79l-.414.91.035.016.037.014.342-.94zm1.395.65l-.466.886.009.005.01.004.447-.894zm.418.233l-.514.858.094.056.104.035.316-.949zm.604.233l.447-.895-.026-.013-.027-.011-.394.919zm2.65 1.162l-.339.94.023.009.022.007.294-.956zm6.416-.465l-.584-.812-.009.006-.007.006.6.8zm0-5.393l-.563.827.563-.827zm-.79-13.156l-.691.723.009.008.009.009.672-.74zm-5.3-.558l-.34-.941-.011.005.35.936zm-2.51 1.116l.43.902.008-.004.008-.004-.447-.894zm-.977.464l-.43-.902-.018.008-.018.01.466.884zm-1.395.698l.342.94.037-.014.035-.016-.414-.91zm-3.114-.79l-.792.61.007.01.007.009.777-.63zm.65-5.347l-.597-.802-.01.008.607.794zm4.696-2.324l-.292-.957-.005.002.297.955zm11.576.279l-.394.919.006.002.388-.921zm4.044 3.16l-.826.564.004.007.005.006.817-.576zm.093 9.252l-.823-.568-.003.004.826.564zm-3.95 3.75c1.64.473 2.87 1.315 3.748 2.513l1.613-1.182c-1.167-1.591-2.788-2.67-4.807-3.252l-.553 1.922zm3.757 2.525c.905 1.198 1.378 2.668 1.378 4.464h2c0-2.17-.58-4.078-1.783-5.67l-1.595 1.206zm1.378 4.464c0 1.7-.455 3.13-1.34 4.337l1.612 1.183c1.16-1.583 1.728-3.437 1.728-5.52h-2zm-1.34 4.337c-.896 1.221-2.192 2.202-3.943 2.92l.758 1.85c2.03-.831 3.647-2.02 4.797-3.587l-1.612-1.183zm-3.935 2.917c-1.716.686-3.77 1.044-6.184 1.044v2c2.607 0 4.923-.386 6.926-1.187l-.742-1.857zm-6.184 1.044c-1.926 0-3.771-.252-5.539-.752l-.545 1.924c1.952.553 3.981.828 6.084.828v-2zm-5.524-.748c-1.762-.529-3.265-1.27-4.522-2.213l-1.2 1.6c1.47 1.102 3.19 1.942 5.148 2.529l.574-1.916zm-4.515-2.207c-.448-.343-.7-.651-.828-.908l-1.79.894c.306.61.798 1.14 1.404 1.602l1.214-1.588zm-.817-.884c-.143-.308-.231-.7-.231-1.204h-2c0 .736.129 1.428.419 2.05l1.812-.846zm-.231-1.204c0-.768.205-1.342.567-1.789l-1.554-1.258c-.692.855-1.013 1.892-1.013 3.047h2zm.581-1.806c.362-.469.734-.635 1.162-.635v-2c-1.123 0-2.052.516-2.744 1.412l1.582 1.223zm1.162-.635c.313 0 .556.056.748.143l.828-1.82a3.776 3.776 0 0 0-1.576-.323v2zm.82.173c.277.1.695.293 1.27.596l.932-1.77c-.602-.317-1.114-.559-1.518-.706l-.684 1.88zm1.29.605c.095.048.211.112.35.196l1.03-1.715a7.364 7.364 0 0 0-.486-.27l-.895 1.79zm.549.287c.155.051.33.119.526.203l.788-1.838a8.81 8.81 0 0 0-.682-.263l-.632 1.898zm.473.178c1.016.508 1.937.913 2.758 1.209l.678-1.882a23.938 23.938 0 0 1-2.541-1.116l-.895 1.79zm2.803 1.224c.916.281 1.916.416 2.99.416v-2c-.909 0-1.706-.114-2.402-.328l-.588 1.912zm2.99.416c1.79 0 3.307-.277 4.32-1.037l-1.2-1.6c-.475.356-1.438.637-3.12.637v2zm4.304-1.026c1.124-.809 1.578-2.104 1.578-3.6h-2c0 1.106-.32 1.67-.746 1.977l1.168 1.623zm1.578-3.6c0-1.433-.473-2.665-1.6-3.43l-1.125 1.653c.423.288.725.792.725 1.777h2zm-1.6-3.43c-1.033-.703-2.559-.964-4.374-.964v2c1.717 0 2.732.265 3.25.617l1.124-1.654zm-4.374-.964H41.21v2h2.883v-2zm-2.883 0c-.666 0-1.093-.217-1.407-.606l-1.555 1.259c.74.913 1.768 1.347 2.962 1.347v-2zm-1.407-.606c-.372-.459-.568-1.007-.568-1.695h-2c0 1.11.331 2.111 1.013 2.954l1.554-1.259zm-.568-1.695c0-.688.196-1.236.568-1.695l-1.555-1.258c-.682.842-1.013 1.843-1.013 2.953h2zm.568-1.695c.314-.389.741-.606 1.407-.606v-2c-1.194 0-2.223.434-2.962 1.348l1.554 1.258zm1.407-.606h2.046v-2H41.21v2zm2.046 0c1.756 0 3.236-.247 4.258-.901l-1.078-1.685c-.527.338-1.527.586-3.18.586v2zm4.258-.901c1.117-.715 1.623-1.859 1.623-3.213h-2c0 .814-.269 1.252-.701 1.528l1.078 1.685zm1.623-3.213c0-1.355-.41-2.536-1.35-3.39l-1.345 1.48c.424.385.695.97.695 1.91h2zm-1.332-3.374c-.916-.874-2.136-1.253-3.526-1.253v2c1.027 0 1.697.273 2.145.7l1.38-1.447zm-3.526-1.253c-.977 0-1.914.158-2.803.478l.677 1.882a6.22 6.22 0 0 1 2.126-.36v-2zm-2.816.483c-.784.294-1.654.681-2.606 1.157l.894 1.789a25.55 25.55 0 0 1 2.415-1.074l-.703-1.872zm-2.589 1.149l-.976.465.86 1.805.976-.465-.86-1.805zm-1.012.483c-.582.306-1.028.528-1.343.671l.828 1.821c.367-.167.852-.41 1.447-.723l-.932-1.77zm-1.27.642a2.404 2.404 0 0 1-.821.126v2c.528 0 1.034-.076 1.504-.246l-.684-1.88zm-.821.126c-.446 0-.82-.168-1.175-.606l-1.555 1.259c.7.863 1.627 1.347 2.73 1.347v-2zm-1.161-.588c-.376-.487-.582-1.086-.582-1.852h-2c0 1.155.321 2.198 1 3.075l1.582-1.223zm-.582-1.852c0-.547.092-.924.22-1.18l-1.789-.895c-.306.612-.43 1.319-.43 2.075h2zm.22-1.18c.129-.258.38-.566.829-.908l-1.215-1.59c-.606.464-1.098.993-1.403 1.603l1.789.895zm.818-.9c1.231-.916 2.691-1.643 4.395-2.172l-.593-1.91c-1.891.587-3.561 1.41-4.996 2.477l1.194 1.604zm4.39-2.17a17.865 17.865 0 0 1 5.241-.794v-2c-1.961 0-3.904.294-5.824.88l.584 1.913zm5.241-.794c2.186 0 4.062.354 5.65 1.035l.788-1.838c-1.884-.808-4.038-1.197-6.438-1.197v2zm5.656 1.037c1.618.682 2.801 1.623 3.606 2.803l1.652-1.126c-1.055-1.548-2.568-2.714-4.482-3.52l-.776 1.843zm3.615 2.816c.832 1.182 1.258 2.558 1.258 4.166h2c0-1.987-.534-3.773-1.623-5.318l-1.635 1.152zm1.258 4.166c0 1.518-.396 2.82-1.17 3.941l1.645 1.136c1.023-1.481 1.525-3.186 1.525-5.077h-2zm-1.174 3.945c-.74 1.084-1.79 1.893-3.196 2.417l.699 1.874c1.754-.654 3.153-1.705 4.149-3.163l-1.652-1.128z" fill="#000" fill-opacity=".14"/></g><defs><filter id="filter0_d" x="21.518" y="21.393" width="46.546" height="55.565" filterUnits="userSpaceOnUse" color-interpolation-filters="sRGB"><feFlood flood-opacity="0" result="BackgroundImageFix"/><feColorMatrix in="SourceAlpha" values="0 0 0 0 0 0 0 0 0 0 0 0 0 0 0 0 0 0 127 0"/><feOffset dy="5"/><feGaussianBlur stdDeviation="5"/><feColorMatrix values="0 0 0 0 0 0 0 0 0 0 0 0 0 0 0 0 0 0 0.39 0"/><feBlend in2="BackgroundImageFix" result="effect1_dropShadow"/><feBlend in="SourceGraphic" in2="effect1_dropShadow" result="shape"/></filter></defs></svg>
